assets/images/ui-states/repo/inactive.svg

<svg width="88" height="87" viewBox="0 0 88 87" fill="none" xmlns="http://www.w3.org/2000/svg">
<circle cx="44.0983" cy="43.3792" r="43.3792" fill="#23262E"/>
<mask id="mask0" mask-type="alpha" maskUnits="userSpaceOnUse" x="0" y="0" width="88" height="87">
<circle cx="43.9017" cy="43.3792" r="43.3792" fill="#23262E"/>
</mask>
<g mask="url(#mask0)">
<rect x="11.5225" y="27" width="33" height="23" rx="2.46316" fill="#55565B"/>
<rect x="11.5225" y="27" width="33" height="20" rx="2.46316" fill="#939498"/>
<rect x="11.5225" y="30" width="33" height="17" rx="0.821053" fill="#76777B"/>
<rect x="16.5225" y="27" width="28" height="23" rx="2.46316" fill="#C4C4C4"/>
<circle cx="31.0225" cy="34" r="2" fill="#23262E"/>
<circle cx="25.5225" cy="43" r="2" fill="#23262E"/>
<circle cx="36.5225" cy="43" r="2" fill="#23262E"/>
<path d="M48.5225 40C48.5225 38.8954 49.4179 38 50.5225 38H58.5225V42H50.5225C49.4179 42 48.5225 41.1046 48.5225 40Z" fill="#505263"/>
<path d="M46.5225 53C46.5225 51.8954 47.4179 51 48.5225 51H56.5225V55H48.5225C47.4179 55 46.5225 54.1046 46.5225 53Z" fill="#505263"/>
<rect x="51.5225" y="35" width="28" height="23" rx="2.46316" fill="#55565B"/>
<rect x="51.5225" y="35" width="28" height="20" rx="2.46316" fill="#939498"/>
<rect x="51.5225" y="38" width="28" height="17" rx="0.821053" fill="#76777B"/>
<rect x="57.5225" y="35" width="22" height="23" rx="2.46316" fill="#C4C4C4"/>
<path d="M69.5225 47H75.0225C77.5077 47 79.5225 49.0147 79.5225 51.5V51.5V72" stroke="#4568DC" stroke-width="4"/>
<circle cx="69.5225" cy="47" r="2" fill="#4568DC"/>
</g>
<g clip-path="url(#clip0)">
<path d="M44.6667 7.0918L38 15.0918H44L43.3333 20.4251L50 12.4251H44L44.6667 7.0918Z" fill="#33CB9A" stroke="#33CB9A" stroke-width="1.33333" stroke-linecap="round" stroke-linejoin="round"/>
</g>
<defs>
<clipPath id="clip0">
<rect width="16" height="16" fill="white" transform="translate(36 5.7583)"/>
</clipPath>
</defs>
</svg>

<svg xmlns="http://www.w3.org/2000/svg" fill="none" width="88" height="87" viewBox="0 0 88 87"><circle cx="44.098" cy="43.379" r="43.379" fill="#23262E"/><mask id="a" width="88" height="87" x="0" y="0" mask-type="alpha" maskUnits="userSpaceOnUse"><circle cx="43.902" cy="43.379" r="43.379" fill="#23262E"/></mask><g mask="url(#a)"><rect width="33" height="23" x="11.523" y="27" fill="#55565B" rx="2.463"/><rect width="33" height="20" x="11.523" y="27" fill="#939498" rx="2.463"/><rect width="33" height="17" x="11.523" y="30" fill="#76777B" rx=".821"/><rect width="28" height="23" x="16.523" y="27" fill="#C4C4C4" rx="2.463"/><circle cx="31.023" cy="34" r="2" fill="#23262E"/><circle cx="25.523" cy="43" r="2" fill="#23262E"/><circle cx="36.523" cy="43" r="2" fill="#23262E"/><path fill="#505263" d="M48.523 40a2 2 0 0 1 2-2h8v4h-8a2 2 0 0 1-2-2Zm-2 13a2 2 0 0 1 2-2h8v4h-8a2 2 0 0 1-2-2Z"/><rect width="28" height="23" x="51.523" y="35" fill="#55565B" rx="2.463"/><rect width="28" height="20" x="51.523" y="35" fill="#939498" rx="2.463"/><rect width="28" height="17" x="51.523" y="38" fill="#76777B" rx=".821"/><rect width="22" height="23" x="57.523" y="35" fill="#C4C4C4" rx="2.463"/><path stroke="#4568DC" stroke-width="4" d="M69.522 47h5.5a4.5 4.5 0 0 1 4.5 4.5V72"/><circle cx="69.522" cy="47" r="2" fill="#4568DC"/></g><g clip-path="url(#b)"><path fill="#33CB9A" stroke="#33CB9A" stroke-linecap="round" stroke-linejoin="round" stroke-width="1.333" d="m44.667 7.092-6.667 8h6l-.667 5.333 6.667-8h-6l.667-5.333Z"/></g><defs><clipPath id="b"><path fill="#fff" d="M0 0h16v16H0z" transform="translate(36 5.758)"/></clipPath></defs></svg>
